Papirus/16x16/actions/lighttable.svg

<?xml version="1.0" encoding="UTF-8" standalone="no"?>
<!--Created with Inkscape (http://www.inkscape.org/)-->
<svg xmlns:dc="http://purl.org/dc/elements/1.1/" xmlns:cc="http://creativecommons.org/ns#" xmlns:rdf="http://www.w3.org/1999/02/22-rdf-syntax-ns#" xmlns:svg="http://www.w3.org/2000/svg" xmlns="http://www.w3.org/2000/svg" xmlns:sodipodi="http://sodipodi.sourceforge.net/DTD/sodipodi-0.dtd" xmlns:inkscape="http://www.inkscape.org/namespaces/inkscape" width="16" height="16" id="svg3049" version="1.1" inkscape:version="0.91 r13725" sodipodi:docname="lighttable.svg" inkscape:export-filename="/home/uri/.kde/share/icons/NITRUX-KDE/16x16/actions/view-right-new.png" inkscape:export-xdpi="30" inkscape:export-ydpi="30">
    <defs id="defs3051">
        <style type="text/css" id="current-color-scheme">
            .ColorScheme-Text { color:#4d4d4d; } .ColorScheme-Background { color:#eff0f1; } .ColorScheme-Highlight { color:#3daee9; } .ColorScheme-ViewText { color:#31363b; } .ColorScheme-ViewBackground { color:#fcfcfc; } .ColorScheme-ViewHover { color:#93cee9; } .ColorScheme-ViewFocus{ color:#3daee9; } .ColorScheme-ButtonText { color:#31363b; } .ColorScheme-ButtonBackground { color:#eff0f1; } .ColorScheme-ButtonHover { color:#93cee9; } .ColorScheme-ButtonFocus{ color:#3daee9; }
        </style>
    </defs>
    <sodipodi:namedview id="base" pagecolor="#000000" bordercolor="#666666" borderopacity="1.0" inkscape:pageopacity="0.0" inkscape:pageshadow="2" inkscape:zoom="19.71" inkscape:cx="1.5914777" inkscape:cy="4.871553" inkscape:document-units="px" inkscape:current-layer="layer1" showgrid="false" fit-margin-top="0" fit-margin-left="0" fit-margin-right="0" fit-margin-bottom="0" inkscape:window-width="1600" inkscape:window-height="847" inkscape:window-x="0" inkscape:window-y="30" inkscape:window-maximized="1" inkscape:showpageshadow="false" borderlayer="true" inkscape:snap-bbox="true" inkscape:snap-global="true" inkscape:object-nodes="true" showguides="false">
        <inkscape:grid type="xygrid" id="grid4085"/>
        <sodipodi:guide position="2.0000044,14.00003" orientation="12,0" id="guide4075"/>
        <sodipodi:guide position="2.0000044,2.0000296" orientation="0,12" id="guide4077"/>
        <sodipodi:guide position="14.000004,2.0000296" orientation="-12,0" id="guide4079"/>
        <sodipodi:guide position="14.000004,14.00003" orientation="0,-12" id="guide4081"/>
    </sodipodi:namedview>
    <metadata id="metadata3054">
        <rdf:RDF>
            <cc:Work rdf:about="">
                <dc:format>
                    image/svg+xml
                </dc:format>
                <dc:type rdf:resource="http://purl.org/dc/dcmitype/StillImage"/>
                <dc:title/>
            </cc:Work>
        </rdf:RDF>
    </metadata>
    <g inkscape:label="Capa 1" inkscape:groupmode="layer" id="layer1" transform="translate(-421.71429,-531.79074)">
        <path style="fill:#000000;fill-opacity:1;stroke:none;opacity:0.5" d="M 8 1 C 4.14586 1 1 4.14585 1 8 C 1 11.85414 4.14586 15 8 15 C 11.85415 15 15 11.85414 15 8 C 15 4.14585 11.85415 1 8 1 z M 7.6972656 3.015625 A 5 5 0 0 0 7.4921875 3.0292969 C 7.5083875 3.0272969 7.5247156 3.0254375 7.5410156 3.0234375 A 5 5 0 0 1 7.6972656 3.015625 z M 7.2148438 3.0683594 A 5 5 0 0 0 7.0117188 3.1035156 C 7.0250188 3.1005156 7.0371813 3.09675 7.0507812 3.09375 A 5 5 0 0 1 7.2148438 3.0683594 z M 6.1875 3.3476562 A 5 5 0 0 0 6.0488281 3.3984375 C 6.0605281 3.3924375 6.0737375 3.3879125 6.0859375 3.3828125 A 5 5 0 0 1 6.1738281 3.3515625 A 5 5 0 0 1 6.1875 3.3476562 z M 5.3125 3.7910156 A 5 5 0 0 0 5.1777344 3.8769531 C 5.1913344 3.8679531 5.2029969 3.8568562 5.2167969 3.8476562 A 5 5 0 0 1 5.3125 3.7910156 z M 11.535156 4.4667969 A 5 5 0 0 1 11.650391 4.59375 C 11.787487 4.7406447 11.914537 4.8958358 12.033203 5.0585938 A 5 5 0 0 1 12.230469 5.3457031 C 12.338933 5.5188314 12.434517 5.700014 12.521484 5.8867188 A 5 5 0 0 1 12.630859 6.1210938 A 5 5 0 0 1 12.638672 6.1445312 C 12.725697 6.3633607 12.79374 6.5911663 12.849609 6.8242188 A 5 5 0 0 1 12.919922 7.1269531 A 5 5 0 0 1 12.980469 7.6230469 A 5 5 0 0 1 12.996094 7.9550781 C 12.996254 7.9706781 13 7.9843 13 8 C 13 8.0107 12.998047 8.02055 12.998047 8.03125 A 5 5 0 0 1 12.986328 8.2695312 C 12.981496 8.3634596 12.978301 8.4563417 12.96875 8.5488281 C 12.968417 8.5520496 12.969097 8.5553759 12.96875 8.5585938 A 5 5 0 0 1 12.966797 8.5722656 C 12.963797 8.6012656 12.956925 8.6294031 12.953125 8.6582031 C 12.953042 8.6588443 12.953209 8.6595151 12.953125 8.6601562 C 12.936373 8.7872664 12.914839 8.9112532 12.888672 9.0351562 A 5 5 0 0 1 12.861328 9.140625 C 12.807903 9.371096 12.736206 9.5937628 12.652344 9.8105469 A 5 5 0 0 1 12.630859 9.8710938 C 12.616359 9.9067938 12.605044 9.9431956 12.589844 9.9785156 A 5 5 0 0 1 12.533203 10.089844 C 12.447801 10.275759 12.350812 10.454345 12.244141 10.626953 A 5 5 0 0 1 12.173828 10.742188 C 12.157128 10.767488 12.144053 10.795412 12.126953 10.820312 A 5 5 0 0 1 12.044922 10.927734 C 11.915323 11.106867 11.776764 11.279465 11.625 11.439453 A 5 5 0 0 1 11.537109 11.535156 A 5 5 0 0 1 11.412109 11.648438 C 11.260154 11.790516 11.09863 11.922618 10.929688 12.044922 A 5 5 0 0 1 10.824219 12.123047 C 10.810519 12.132047 10.797003 12.143144 10.783203 12.152344 A 5 5 0 0 1 10.646484 12.234375 C 10.473636 12.342243 10.293749 12.438921 10.107422 12.525391 A 5 5 0 0 1 10.011719 12.570312 C 9.9787187 12.584812 9.9474625 12.605341 9.9140625 12.619141 A 5 5 0 0 1 9.8730469 12.632812 C 9.6269747 12.731726 9.3714274 12.809886 9.1074219 12.869141 A 5 5 0 0 1 9.0761719 12.876953 C 9.0333719 12.885953 8.9923787 12.89795 8.9492188 12.90625 A 5 5 0 0 1 8.7871094 12.931641 C 8.6785094 12.948841 8.5697944 12.966462 8.4589844 12.976562 A 5 5 0 0 1 8.2050781 12.988281 C 8.1366781 12.991281 8.06905 13 8 13 C 7.993 13 7.9875687 12.998047 7.9804688 12.998047 A 5 5 0 0 1 7.1660156 12.921875 C 7.1454156 12.917875 7.1240156 12.916109 7.1035156 12.912109 A 5 5 0 0 1 6.8183594 12.845703 C 6.5885719 12.790232 6.3624174 12.724458 6.1464844 12.638672 C 6.1459109 12.638444 6.1451046 12.6389 6.1445312 12.638672 A 5 5 0 0 1 5.8671875 12.511719 C 5.6915238 12.428947 5.5209982 12.338211 5.3574219 12.236328 A 5 5 0 0 1 5.0488281 12.027344 C 4.8819005 11.905057 4.7223931 11.774497 4.5722656 11.632812 A 5 5 0 0 1 4.4648438 11.535156 L 11.535156 4.4667969 z M 3.9082031 5.1347656 A 5 5 0 0 0 3.8671875 5.1914062 C 3.8691875 5.1884062 3.8700469 5.1826875 3.8730469 5.1796875 A 5 5 0 0 1 3.9082031 5.1347656 z M 3.4375 5.9707031 A 5 5 0 0 0 3.4003906 6.0449219 C 3.4033906 6.0369219 3.4061562 6.0292844 3.4101562 6.0214844 A 5 5 0 0 1 3.4375 5.9707031 z M 3.1289062 6.9023438 A 5 5 0 0 0 3.1054688 6.9941406 C 3.1074688 6.9841406 3.1083281 6.9748437 3.1113281 6.9648438 A 5 5 0 0 1 3.1289062 6.9023438 z M 3.0605469 7.2636719 A 5 5 0 0 0 3.0273438 7.5039062 C 3.0289702 7.4871537 3.0301176 7.4698935 3.03125 7.453125 C 3.0315101 7.4492739 3.0308765 7.4452164 3.03125 7.4414062 A 5 5 0 0 1 3.046875 7.34375 C 3.0477605 7.3378832 3.0498259 7.3319841 3.0507812 7.3261719 C 3.0535784 7.3052086 3.0574934 7.2845499 3.0605469 7.2636719 z M 3.0136719 7.7441406 A 5 5 0 0 0 3.0019531 8.0214844 C 3.0010431 8.0144844 3 8.0071 3 8 C 3 7.9894485 3.0018887 7.9792856 3.0019531 7.96875 A 5 5 0 0 1 3.0136719 7.7441406 z M 3.078125 8.8535156 A 5 5 0 0 0 3.0957031 8.9511719 A 5 5 0 0 1 3.0820312 8.8789062 A 5 5 0 0 1 3.0800781 8.8730469 A 5 5 0 0 1 3.078125 8.8535156 z " transform="translate(421.71429,531.79074)" id="rect4203"/>
    </g>
</svg>

<?xml version="1.0" encoding="UTF-8" standalone="no"?>
<!--Created with Inkscape (http://www.inkscape.org/)-->
<svg id="svg3049" xmlns:rdf="http://www.w3.org/1999/02/22-rdf-syntax-ns#" xmlns="http://www.w3.org/2000/svg" height="16" width="16" version="1.1" xmlns:cc="http://creativecommons.org/ns#" xmlns:dc="http://purl.org/dc/elements/1.1/">
 <defs id="defs3051">
 </defs>
 <metadata id="metadata3054">
  <rdf:RDF>
   <cc:Work rdf:about="">
    <dc:format>image/svg+xml</dc:format>
    <dc:type rdf:resource="http://purl.org/dc/dcmitype/StillImage"/>
    <dc:title/>
   </cc:Work>
  </rdf:RDF>
 </metadata>
 <g id="layer1" transform="translate(-421.71 -531.79)">
  <path id="rect4203" opacity=".5" d="m8 1c-3.8541 0-7 3.1458-7 7 0 3.854 3.1459 7 7 7 3.854 0 7-3.146 7-7 0-3.8542-3.146-7-7-7zm-0.3027 2.0156a5 5 0 0 0 -0.2051 0.0137c0.0162-0.002 0.0325-0.0039 0.0488-0.0059a5 5 0 0 1 0.1563 -0.0078zm-0.4825 0.0528a5 5 0 0 0 -0.2031 0.0351c0.0133-0.003 0.0255-0.0067 0.0391-0.0097a5 5 0 0 1 0.164 -0.0254zm-1.0273 0.2793a5 5 0 0 0 -0.1387 0.0507c0.0117-0.006 0.0249-0.0105 0.0371-0.0156a5 5 0 0 1 0.0879 -0.0312 5 5 0 0 1 0.0137 -0.0039zm-0.875 0.4433a5 5 0 0 0 -0.1348 0.086c0.0136-0.009 0.0253-0.0201 0.0391-0.0293a5 5 0 0 1 0.0957 -0.0567zm6.2225 0.6758a5 5 0 0 1 0.115 0.127c0.137 0.1468 0.265 0.302 0.383 0.4648a5 5 0 0 1 0.197 0.2871c0.109 0.1731 0.205 0.3543 0.291 0.541a5 5 0 0 1 0.11 0.2344 5 5 0 0 1 0.008 0.0234c0.087 0.2189 0.155 0.4467 0.211 0.6797a5 5 0 0 1 0.07 0.3028 5 5 0 0 1 0.06 0.496 5 5 0 0 1 0.016 0.3321c0 0.0156 0.004 0.0292 0.004 0.0449 0 0.0107-0.002 0.0206-0.002 0.0312a5 5 0 0 1 -0.012 0.2383c-0.005 0.094-0.008 0.1868-0.017 0.2793-0.001 0.0032 0 0.0066 0 0.0098a5 5 0 0 1 -0.002 0.0137c-0.003 0.029-0.01 0.0571-0.014 0.0859v0.002c-0.017 0.1271-0.038 0.2511-0.064 0.375a5 5 0 0 1 -0.028 0.1054c-0.053 0.2305-0.125 0.4532-0.209 0.6699a5 5 0 0 1 -0.021 0.0606c-0.015 0.0357-0.026 0.0721-0.041 0.1074a5 5 0 0 1 -0.057 0.1115c-0.085 0.186-0.182 0.364-0.289 0.537a5 5 0 0 1 -0.07 0.115c-0.017 0.025-0.03 0.053-0.047 0.078a5 5 0 0 1 -0.082 0.108c-0.13 0.179-0.268 0.351-0.42 0.511a5 5 0 0 1 -0.088 0.096 5 5 0 0 1 -0.125 0.113c-0.152 0.143-0.313 0.275-0.482 0.397a5 5 0 0 1 -0.106 0.078c-0.013 0.009-0.027 0.02-0.041 0.029a5 5 0 0 1 -0.137 0.082c-0.172 0.108-0.352 0.205-0.539 0.291a5 5 0 0 1 -0.095 0.045c-0.0333 0.015-0.0645 0.035-0.0979 0.049a5 5 0 0 1 -0.0411 0.014c-0.246 0.099-0.5016 0.177-0.7656 0.236a5 5 0 0 1 -0.0312 0.008c-0.0428 0.009-0.0838 0.021-0.127 0.029a5 5 0 0 1 -0.1621 0.026c-0.1086 0.017-0.2173 0.034-0.3281 0.045a5 5 0 0 1 -0.2539 0.011c-0.0684 0.003-0.1361 0.012-0.2051 0.012-0.007 0-0.0124-0.002-0.0195-0.002a5 5 0 0 1 -0.8145 -0.076c-0.0206-0.004-0.042-0.006-0.0625-0.01a5 5 0 0 1 -0.2851 -0.066c-0.2298-0.056-0.456-0.122-0.6719-0.207-0.0006-0.001-0.0014 0-0.002 0a5 5 0 0 1 -0.2773 -0.127c-0.1757-0.083-0.3462-0.174-0.5098-0.276a5 5 0 0 1 -0.3086 -0.209c-0.1669-0.122-0.3264-0.253-0.4765-0.394a5 5 0 0 1 -0.1075 -0.098l7.0702-7.0682zm-7.6268 0.668a5 5 0 0 0 -0.041 0.0566c0.002-0.003 0.0028-0.0087 0.0058-0.0117a5 5 0 0 1 0.0352 -0.0449zm-0.4707 0.8359a5 5 0 0 0 -0.0371 0.0742c0.003-0.008 0.0058-0.0156 0.0098-0.0234a5 5 0 0 1 0.0273 -0.0508zm-0.3086 0.9316a5 5 0 0 0 -0.0234 0.0918c0.002-0.01 0.0028-0.0193 0.0058-0.0293a5 5 0 0 1 0.0176 -0.0625zm-0.0684 0.3614a5 5 0 0 0 -0.0332 0.2402c0.0017-0.0167 0.0028-0.034 0.0039-0.0508 0.0003-0.0038-0.0003-0.0079 0-0.0117a5 5 0 0 1 0.0157 -0.0976c0.0009-0.0059 0.0029-0.0118 0.0039-0.0176 0.0028-0.021 0.0067-0.0417 0.0097-0.0625zm-0.0468 0.4804a5 5 0 0 0 -0.0117 0.2774c-0.001-0.007-0.002-0.0144-0.002-0.0215 0-0.0106 0.0019-0.0207 0.002-0.0312a5 5 0 0 1 0.0117 -0.2247zm0.0644 1.1094a5 5 0 0 0 0.0176 0.0977 5 5 0 0 1 -0.0137 -0.0723 5 5 0 0 1 -0.0019 -0.0059 5 5 0 0 1 -0.002 -0.0195z" transform="translate(421.71 531.79)"/>
 </g>
</svg>
